X: 1250
T: Berrimal Polka
B: australian traditional tunes wiki
M:2/4
L:1/16
R: Polka
Q: 1/4=100
K:G
V:1 
B2|"G"d2B2 d3B|"D7"c2A2 A3A|c2A2 c3A|"G"B2G2 G3B|
d2B2 d3B|"D7"c2A2 A3A|c2A2 c3A|"G"B2G2 G3G|
D2D2 G3D|"C"F2E2 E3D|"D7"E2F2 E3F|"G"E2D2 D2z2|
D2D2 B3G|"C"F2E2 c3G|"D7"F2D2 E2F2|"G"G2G2 G2||
% abcbook-tune_id 6342d53af3d9b461120a9c7b


% abcbook-boost 0
% abcbook-tablature 
% abcbook-transpose 
% abcbook-lastupdated 1665324355993
% abcbook-soundfonts 
% abcbook-repeats 1
% NFF Book 2008

